.local/share/icons/Gruvbox-Plus-Dark/actions/16/view-pages-facing-first-centered.svg

<svg xmlns="http://www.w3.org/2000/svg" width="16" height="16" version="1.1">
 <defs>
  <style id="current-color-scheme" type="text/css">
   .ColorScheme-Text { color:#555555; } .ColorScheme-Highlight { color:#4285f4; } .ColorScheme-NeutralText { color:#ff9800; } .ColorScheme-PositiveText { color:#4caf50; } .ColorScheme-NegativeText { color:#f44336; }
  </style>
 </defs>
 <path style="fill:currentColor" class="ColorScheme-Text" d="M 6.6660156 0 L 4 2.8574219 L 4 9.2851562 C 4 9.2851562 3.9993486 10 4.6660156 10 L 11.333984 10 C 11.333984 10 12 9.9994422 12 9.2851562 L 12 0.71484375 C 12 0.00055795 11.333984 0 11.333984 0 L 6.6660156 0 z M 7.4140625 2 L 10 2 L 10 8 L 6 8 L 6 3.6972656 L 7.4140625 2 z M 2.6660156 6 L 0 8.8574219 L 0 15.285156 C 0 15.285156 -0.00065137 16 0.66601562 16 L 7.3339844 16 C 7.3339844 16 8 15.999442 8 15.285156 C 8 15.285156 7.9993486 16 8.6660156 16 L 15.333984 16 C 15.333984 16 16 15.999442 16 15.285156 L 16 6.7148438 C 16 6.000558 15.333984 6 15.333984 6 L 13 6 L 13 8 L 14 8 L 14 14 L 10 14 L 10 11 L 8 11 L 6 11 L 6 14 L 2 14 L 2 9.6972656 L 3 8.4960938 L 3 6 L 2.6660156 6 z"/>
</svg>

<svg width="16" height="16" version="1.1" xmlns="http://www.w3.org/2000/svg">
  <defs>
    <style id="current-color-scheme" type="text/css">.ColorScheme-Text { color:#ebdbb2; } .ColorScheme-Highlight { color:#458588; }</style>
  </defs>
  <path class="ColorScheme-Text" d="m6.666 1e-4 -2.666 2.857v6.428s-6.514e-4 0.7148 0.666 0.7148h6.668s0.666-5.58e-4 0.666-0.7148v-8.57c0-0.7143-0.666-0.7148-0.666-0.7148zm0.748 2h2.586v6h-4v-4.303zm-4.748 4-2.666 2.857v6.428s-6.514e-4 0.7148 0.666 0.7148h6.668s0.666-5.58e-4 0.666-0.7148c0 0-6.51e-4 0.7148 0.666 0.7148h6.668s0.666-5.58e-4 0.666-0.7148v-8.57c0-0.7143-0.666-0.7148-0.666-0.7148h-2.334v2h1v6h-4v-3h-4v3h-4v-4.303l1-1.201v-2.496z" fill="currentColor"/>
</svg>
